X: 21631
T: Killavil, The
R: jig
M: 6/8
K: Edorian
A|BEE BEE|Bdf edB|BAF FEF|DFA dBA|
BEE BEE|Bdf edB|BAF DAF|FED E2:|A|
Bef gfe|faf edB|BAF FEF|DFA dBA|
Bef gfe|~f3 edB|BAF DAF|FED E2:|

